X:1
T:Title
%%score ( 1 2 ) { 3 | 4 }
L:1/8
Q:1/4=115
M:4/4
K:F
V:1 treble nm="Grand Piano, Unnamed-000"
V:2 treble 
V:3 bass nm="Choir Pad, Unnamed-001"
V:4 bass 
V:1
 [CF]4 [CF]2 [CF]2 | [DG]2 [CE]2 [CF]4 | [FA]3 [FA] [FA]2 [^FA]2 | [GB]2 [EG]2 [FA]4 | %4
w: By~Silesian~folk~song * *||||
 [Fc]4 [Ff]2 [Fd]2 | [Fc]4 [GB]2 [FA]2 | [EB]4 [FA]4 | [EG]8 | [Fc]4 [Fd]2 [Fc]2 | c2 z2 z4 | %10
w: ||||||
 [DB]4 [Dc]2 [DB]2 | B2 z2 z4 | [FA]2 [FA]2 [Fc]2 [FB]2 | [FA]4 [EG]4 | F8 |] %15
w: |||||
V:2
 x8 | x8 | x8 | x8 | x8 | x8 | x8 | x8 | x8 | ^F2- [FA]2 [GB]4 | x8 | E2- [EG]2 [FA]2 [FA]2 | x8 | %13
 x8 | x8 |] %15
V:3
 A,4 A,2 A,2 | B,2 G,2 A,4 | C3 C D2 D2 | D2 C2 C4 | A,4 D2 B,2 | A,4 C4 | C4 C4 | C8 | %8
 C4 B,2[K:bass] A,2 | A,4 G,4 | G,4 ^F,2 G,2 | G,4 F,2[K:treble] C2 | C2 D2 _E2 D2 | C4 C2 B,2 | %14
 A,8 |] %15
V:4
 F,4 F,2 F,2 | B,,2 C,2 F,4 | F,3 E, D,2 C,2 | B,,2 C,2 F,4 | F,4 B,,2 D,2 | F,4 E,2 F,2 | %6
 G,4 F,4 | C,8 | A,,4 B,,2 C,2 | D,4 z4 | G,,4 A,,2 B,,2 | C,4 z2 F,2 | E,2 D,2 A,,2 B,,2 | %13
 C,4 C,4 | F,8 |] %15

